svgs/sharp-light/refrigerator.svg

<svg xmlns="http://www.w3.org/2000/svg" viewBox="0 0 384 512"><!--! Font Awesome Pro 6.6.0 by @fontawesome - https://fontawesome.com License - https://fontawesome.com/license (Commercial License) Copyright 2024 Fonticons, Inc. --><path d="M352 32l0 128-64 0 0-48 0-16-32 0 0 16 0 48L32 160 32 32l320 0zM256 192l0 176 0 16 32 0 0-16 0-176 64 0 0 288L32 480l0-288 224 0zM32 0L0 0 0 32 0 480l0 32 32 0 320 0 32 0 0-32 0-448 0-32L352 0 32 0z"/></svg>

<svg xmlns="http://www.w3.org/2000/svg" viewBox="0 0 384 512"><!--! Font Awesome Pro 6.4.2 by @fontawesome - https://fontawesome.com License - https://fontawesome.com/license (Commercial License) Copyright 2023 Fonticons, Inc. --><path d="M352 32V160H288V112 96H256v16 48H32V32H352zM256 192V368v16h32V368 192h64V480H32V192H256zM32 0H0V32 480v32H32 352h32V480 32 0H352 32z"/></svg>
